icons-rebrand/svg/application-panel-light.svg

<svg width="32" height="32" viewBox="0 0 32 32" fill="none" xmlns="http://www.w3.org/2000/svg">
<path d="M25 5.51003H7C5.80693 5.51136 4.66311 5.98589 3.81948 6.82951C2.97585 7.67314 2.50132 8.81697 2.5 10.01V21.989C2.50132 23.1821 2.97585 24.3259 3.81948 25.1696C4.66311 26.0132 5.80693 26.4877 7 26.489H25C26.1931 26.488 27.3371 26.0135 28.1808 25.1698C29.0245 24.3262 29.4989 23.1822 29.5 21.989V10.009C29.4987 8.81597 29.0241 7.67214 28.1805 6.82851C27.3369 5.98489 26.1931 5.51036 25 5.50903V5.51003ZM3.5 21.988V10.008C3.50159 9.08045 3.87091 8.19134 4.527 7.53562C5.18309 6.8799 6.07241 6.51109 7 6.51003H13.5V25.49H7C6.07207 25.489 5.18244 25.1199 4.5263 24.4637C3.87015 23.8076 3.50106 22.918 3.5 21.99V21.988ZM28.5 21.988C28.4989 22.916 28.1299 23.8056 27.4737 24.4617C26.8176 25.1179 25.9279 25.487 25 25.488H14.5V6.50903H25C25.9279 6.51009 26.8176 6.87918 27.4737 7.53533C28.1299 8.19148 28.4989 9.0811 28.5 10.009V21.989V21.988Z" fill="#0F0F0F"/>
<path d="M6.99512 12.5H10.0021C10.1347 12.5 10.2619 12.4473 10.3557 12.3536C10.4494 12.2598 10.5021 12.1326 10.5021 12C10.5021 11.8674 10.4494 11.7402 10.3557 11.6464C10.2619 11.5527 10.1347 11.5 10.0021 11.5H6.99512C6.86251 11.5 6.73533 11.5527 6.64156 11.6464C6.5478 11.7402 6.49512 11.8674 6.49512 12C6.49512 12.1326 6.5478 12.2598 6.64156 12.3536C6.73533 12.4473 6.86251 12.5 6.99512 12.5ZM10.0021 15.5H6.99512C6.86251 15.5 6.73533 15.5527 6.64156 15.6464C6.5478 15.7402 6.49512 15.8674 6.49512 16C6.49512 16.1326 6.5478 16.2598 6.64156 16.3536C6.73533 16.4473 6.86251 16.5 6.99512 16.5H10.0021C10.1347 16.5 10.2619 16.4473 10.3557 16.3536C10.4494 16.2598 10.5021 16.1326 10.5021 16C10.5021 15.8674 10.4494 15.7402 10.3557 15.6464C10.2619 15.5527 10.1347 15.5 10.0021 15.5ZM10.0021 19.5H6.99512C6.86251 19.5 6.73533 19.5527 6.64156 19.6464C6.5478 19.7402 6.49512 19.8674 6.49512 20C6.49512 20.1326 6.5478 20.2598 6.64156 20.3536C6.73533 20.4473 6.86251 20.5 6.99512 20.5H10.0021C10.1347 20.5 10.2619 20.4473 10.3557 20.3536C10.4494 20.2598 10.5021 20.1326 10.5021 20C10.5021 19.8674 10.4494 19.7402 10.3557 19.6464C10.2619 19.5527 10.1347 19.5 10.0021 19.5Z" fill="#0F0F0F"/>
</svg>

<svg width="32" height="32" viewBox="0 0 32 32" fill="none" xmlns="http://www.w3.org/2000/svg"><path d="M25 5.51H7a4.505 4.505 0 0 0-4.5 4.5v11.979a4.505 4.505 0 0 0 4.5 4.5h18a4.504 4.504 0 0 0 4.5-4.5v-11.98a4.505 4.505 0 0 0-4.5-4.5zM3.5 21.988v-11.98A3.504 3.504 0 0 1 7 6.51H13.5v18.98H7a3.504 3.504 0 0 1-3.5-3.5zm25 0a3.504 3.504 0 0 1-3.5 3.5H14.5V6.509H25a3.504 3.504 0 0 1 3.5 3.5v11.98z" fill="#0F0F0F"/><path d="M6.995 12.5h3.007a.5.5 0 1 0 0-1H6.995a.5.5 0 0 0 0 1zM10.002 15.5H6.995a.5.5 0 0 0 0 1h3.007a.5.5 0 1 0 0-1zM10.002 19.5H6.995a.5.5 0 0 0 0 1h3.007a.5.5 0 1 0 0-1z" fill="#0F0F0F"/></svg>
